src/assets/tabbar/icon-menu.svg

<?xml version="1.0" encoding="UTF-8" standalone="no"?>
<svg width="28px" height="28px" viewBox="0 0 28 28" version="1.1" xmlns="http://www.w3.org/2000/svg" xmlns:xlink="http://www.w3.org/1999/xlink">
    <!-- Generator: Sketch 43.2 (39069) - http://www.bohemiancoding.com/sketch -->
    <title>Bounds</title>
    <desc>Created with Sketch.</desc>
    <defs></defs>
    <g id="Page-1" stroke="none" stroke-width="1" fill="none" fill-rule="evenodd">
        <g id="order">
            <rect id="Bounds" x="0" y="0" width="28" height="28"></rect>
            <path d="M6.65612949,5.87954231 L6.83884604,5.08581588 C6.93227124,4.67687604 7.21668071,4.25544312 7.33160198,4.23378846 L21.2941228,4.23378846 C21.4115244,4.25544312 21.6951071,4.67687604 21.7893591,5.08581588 L21.9720756,5.87954231 L6.65612949,5.87954231 Z M22.7856093,6.16352027 L22.4995464,4.92004442 C22.414389,4.5519156 22.0117513,3.5 21.2974208,3.5 L7.33159815,3.5 C6.61644088,3.5 6.2138032,4.5519156 6.12864575,4.92004442 L5.84258284,6.16352027 C5.8177797,6.27262632 5.84340961,6.38756247 5.91285841,6.47501388 C5.98148044,6.5624653 6.0864804,6.61327041 6.19809454,6.61327041 L7.22081078,6.61327041 C7.22081078,6.62243198 7.21667692,6.63076069 7.21750369,6.63992227 L8.38325138,23.0607996 C8.43120412,23.8678512 9.09758188,24.5 9.90120369,24.5 L18.7269885,24.5 C19.5297835,24.5 20.196988,23.8678512 20.2449408,23.0674625 L21.4106885,8.47806774 C21.4272239,8.27568018 21.2775783,8.0991116 21.0766728,8.08245419 C20.8757674,8.06413104 20.7004918,8.21737923 20.6839564,8.41893393 L19.5182087,23.0158245 C19.4925788,23.4372571 19.1453348,23.766241 18.7269885,23.766241 L9.90120369,23.766241 C9.48285735,23.766241 9.13561336,23.4372571 9.10998345,23.0124931 L7.9458893,6.61327041 L22.4309244,6.61327041 C22.5417118,6.61327041 22.6467117,6.5624653 22.7161605,6.47501388 C22.7847826,6.38756247 22.8104125,6.27262632 22.7856093,6.16352027 L22.7856093,6.16352027 Z M17.3893103,13.6277346 C17.3893103,15.2701526 16.0623403,16.6069077 14.4319449,16.6069077 C12.8015494,16.6069077 11.4745795,15.2701526 11.4745795,13.6277346 C11.4745795,11.9844837 12.8015494,10.6485615 14.4319449,10.6485615 C16.0623403,10.6485615 17.3893103,11.9844837 17.3893103,13.6277346 L17.3893103,13.6277346 Z M10.7462026,13.6276942 C10.7462026,15.6748814 12.3997433,17.3406154 14.4319449,17.3406154 C16.4641464,17.3406154 18.1176872,15.6748814 18.1176872,13.6276942 C18.1176872,11.5796742 16.4641464,9.91477308 14.4319449,9.91477308 C12.3997433,9.91477308 10.7462026,11.5796742 10.7462026,13.6276942 L10.7462026,13.6276942 Z" id="Fill-1" fill-opacity="0.58" fill="#000000"></path>
        </g>
    </g>
</svg>

<svg width="28" height="28" xmlns="http://www.w3.org/2000/svg"><g fill="none" fill-rule="evenodd"><path d="M0 0h28v28H0z"/><path d="M6.656 5.88l.183-.794c.093-.41.378-.83.493-.852h13.962c.118.021.401.443.495.852l.183.794H6.656zm16.13.284L22.5 4.92c-.086-.368-.488-1.42-1.203-1.42H7.332c-.716 0-1.118 1.052-1.203 1.42l-.286 1.244a.37.37 0 00.07.311.362.362 0 00.285.138h1.023c0 .01-.004.018-.003.027l1.165 16.42c.048.808.715 1.44 1.518 1.44h8.826c.803 0 1.47-.632 1.518-1.433L21.41 8.478a.364.364 0 10-.727-.06l-1.166 14.598a.796.796 0 01-.791.75H9.901a.797.797 0 01-.791-.754L7.946 6.613H22.43a.364.364 0 00.355-.45zm-5.397 7.464c0 1.642-1.327 2.979-2.957 2.979s-2.957-1.337-2.957-2.98 1.327-2.978 2.957-2.978 2.957 1.335 2.957 2.979zm-6.643 0c0 2.047 1.654 3.713 3.686 3.713s3.686-1.666 3.686-3.713c0-2.048-1.654-3.713-3.686-3.713s-3.686 1.665-3.686 3.713z" fill-opacity=".58" fill="#000"/></g></svg>
